!!! OTL: Berkowitz586
!!! Chapter: 1
!!! Section: V
!!! Page: 147
!!! Mode: 
!!! Encoder: AR
**kern
*staff1
=1-
!!pagebreak:original
*clefG2
*k[]
*C:
*M6/8
8.B/L
16c#/L
16d/
16e/JJ
8e/L
8a-/
16e/L
16d/JJ
=2
4f/
8d-/
4.r
=3
8.B/L
16dn/L
16f/
16a/JJ
8cc#/L
16b/L
16ccn/
16g#/
16e/JJ
=4
4gn/
8g-/
4e-/
8r
=5
8.d-/L
16e-/L
16en/
16gn/JJ
8.b-/L
16g/L
16e/
16c#/JJ
=6
!!linebreak:original
8.dn/L
16f/L
16a-/
16bn/JJ
4ccn\
8b-\
=7
4g-/
8an/
4f/
8a-/
=8
8e/L
16e/L
16gn/
16f#/
16d#/JJ
4fn/
8r
=9
8.dn/L
16e/L
16f/
16a-/JJ
8b/L
16g/L
16b-/J
8f#/J
=10
[4.d/
4d/]
8r
==
*-
